X:1
T:The Great Pretender
T:The great pretender
T:Buck Ram
C:Buck Ram
Z:All Rights Reserved
L:1/8
M:4/4
K:C
V:1 treble nm="Electric Piano"
%%MIDI program 4
V:1
 z4 z2"^N.C." G2 |"C" E2 DC"G7" D3 F |"C" ED C4"C7" C2 |"F" A2 A2"Dm" F2 GA |"C" G6"C7" C2 | %5
w: Oh|yes I'm the great pre-|tend- * er pre-|tend- in I'm do- in|well My|
"F" A3 A"G7" B2 AB |"C" c3 c"F" A3 A |"C" G2 EC"G7" D2 CD |"C" C6 G2 | E2 DC"G7" D3 F | %10
w: need is such I pre-|tend too much I'm|lone- ly but no one can|tell. Oh|yes, I'm the great pre-|
"C" ED C4"C7" C2 |"F" A2 AA"Dm" F2 GA |"C" G6 C2 |"F" A3 A"G7" B2 AB |"C" c3 c"F" A3 A | %15
w: tend- * er a-|drift in a world of my|own I|play the game but to|my real shame you've|
"C" G2 EC"G7" D2 CD |"C" C6"C7" C2 |"F" A2 AA"Dm" F2 GA |"C" G3 E G3 C |"F" A2 AA"Dm" F2 GA | %20
w: left me to dream all a-|lone too|real is this feel- ing of|make be- lieve too|real when I feel what my|
"C" G2 EC"G7" D2 AG |"C" E2 DC"G7" D3 F |"C" ED"C7" C4 C2 |"F" A2 AA"Dm" F2 GA |"C" G6"C7" C2 | %25
w: heart con- * ceal oh *|yes I'm the great pre-|tend * er just|laugh- in and gay like a|clown I|
"F" A3 A"G7" B2 AB |"G" c3 c"F" A3 A |"C" G2 EE"G7" D2 CD |"E7" E6 A2 |"C" G2 EE"G7" D2 CD | %30
w: seem to be what I'm|not you see I'm|wear- in my heart like a|crown pre-|tend- in that you're still a-|
"C" C8- | C2 z2 z4 |] %32
w: roun'.-||

